X: 14101
T: The WRIGHT WALTZ
C: Bob McQuillen 3 June'10
B: Bob's Note Book 14 #101
%D:2010
%R: waltz
Z: 2020 John Chambers <jc:trillian.mit.edu>
M: 3/4
L: 1/4
K: D
A \
| "D"f>gf | edc | "G"B3 | "D"A2G | FA>B | "Bm"Adf | "G6"ag>f | "A7"e3 |
| "D"f>gf | edc | "G"B>cd | edB | "D"Adf | "G6"agf | "A7"e3 | "D"d2 :|
|: c \
| "G"B>cd | "D"AFD | "A7"G>AG | "D"F2A | "G"B>cd | "D"A"Bm"FA | "G6"f>gf | "A7"e2d |
| "G"B>cd | "D"A>cd | "A7"cde | "Bm"f2a | "G6"ga>g | "D"fdB | "A7"Adc | "D"d2 :|
%%begintext align
%% Things, like time,
%% slide by. I should have written this tune for
%% Chris Wright, of Seattle, ages ago. She's a dear
%% friend, and a member of that wonderful Seattle
%% singing group, the "S-Curves"; whose music I so
%% adore. So finally, Chris, and with much love, from
%% BOB-
%%endtext

%%sep 1 1 500

%%sep 1 1 500

